src/components/LogotypeNew/img/logotype.svg

<svg width="331" height="102" viewBox="0 0 331 102" fill="none" xmlns="http://www.w3.org/2000/svg">
<path d="M100.225 17.9645C96.896 15.3526 93.0037 13.7649 88.5991 13.3552C84.5531 12.9454 80.3022 13.5088 76.0001 15.0453L62.172 20.0132C58.1772 21.4472 56.1285 25.8517 57.5626 29.8465L60.3794 37.6313L50.6485 30.8196C48.1389 29.0783 44.8611 28.9759 42.2491 30.5635L34.8229 35.0705C32.2109 36.6582 30.7769 39.6287 31.1866 42.6504L33.184 57.9638C33.0816 57.9638 32.9791 57.9638 32.8255 57.9638L30.572 52.1253C29.1892 48.5402 25.3993 46.5428 21.6605 47.3622C19.2022 47.9256 16.6926 48.9499 14.2855 50.3839C12.032 51.7155 9.93218 53.3032 8.03721 55.0957C5.11793 57.8614 2.96688 60.8319 1.63528 63.8536C0.150027 67.285 -0.310912 70.6652 0.201243 73.943C0.764613 77.3233 2.24986 80.2938 4.60577 82.8033C7.62748 86.0299 10.8028 87.2078 13.21 87.6176L15.5147 94.1731C16.5902 97.2973 19.5607 99.2947 22.736 99.2947C23.0946 99.2947 23.5043 99.2435 23.8628 99.1923C26.5772 98.7825 29.3428 97.8094 32.3646 96.1705C35.079 94.6853 37.6397 92.8415 39.9444 90.6393C42.6076 88.1297 44.605 85.4153 45.9367 82.6497C46.3464 82.496 46.7049 82.2912 47.0634 82.0863L54.7457 77.4257C57.4089 75.7868 58.8429 72.7139 58.3308 69.6409L58.1259 68.3093L60.5331 66.8241L61.6086 67.6435C64.1181 69.5385 67.4984 69.6922 70.2128 68.0533L76.6659 64.1609C77.0757 64.1097 77.4854 63.956 77.8439 63.8536L91.7233 58.8345C96.0254 57.298 99.6617 54.9933 102.479 52.074C105.551 48.9499 107.549 45.2112 108.42 41.0627C109.29 36.9655 108.932 32.6634 107.395 28.3613C106.012 24.0592 103.554 20.5253 100.225 17.9645ZM330.797 75.3771C330.234 72.9187 329.209 70.4604 327.724 68.002C326.393 65.7486 324.805 63.6487 322.961 61.7538C320.144 58.8345 317.225 56.7346 314.152 55.4543C310.721 54.0202 307.34 53.5593 304.063 54.1227C303.602 54.1739 303.192 54.2763 302.782 54.3787C302.475 51.1009 301.399 47.9768 299.607 44.9551C297.507 41.4724 294.485 38.3995 290.644 35.9412L278.301 27.9003C276.611 26.7736 274.511 26.4151 272.514 26.8248C272.155 26.9272 271.797 27.0297 271.438 27.1321C271.336 26.8248 271.233 26.5687 271.131 26.2614C270.312 24.4177 268.775 22.9324 266.88 22.2154L258.839 19.0913C256.125 18.0158 253.103 18.6303 251.055 20.4229L250.542 18.8352C249.825 16.6842 248.187 14.9428 246.035 14.0722L239.224 11.4602C235.28 9.92371 230.824 11.8699 229.288 15.8135L226.522 22.9324L224.115 12.126C223.449 9.15548 221.145 6.85079 218.123 6.2362L209.621 4.49488C206.651 3.88029 203.578 5.10946 201.837 7.5678L189.084 25.5444C188.777 25.4932 188.52 25.442 188.213 25.442L181.043 25.0835L181.914 8.59211C182.119 4.34123 178.892 0.756147 174.641 0.50007L165.832 0.039131C163.783 -0.0632999 161.786 0.653716 160.301 1.98532C160.147 2.13896 159.993 2.29261 159.891 2.39504C157.894 1.52438 155.64 0.858578 153.284 0.448855C150.723 0.039131 148.06 -0.114515 145.448 0.0903465C141.402 0.346424 137.868 1.2683 134.949 2.75355C133.515 3.47057 132.235 4.34123 131.057 5.31432C130.698 4.9046 130.289 4.54609 129.828 4.2388C128.189 3.06084 126.089 2.54869 124.091 2.9072L115.385 4.34123C111.185 5.00703 108.368 9.00184 109.034 13.1503L114.104 43.9308C114.412 45.9282 115.538 47.7207 117.229 48.9499C118.56 49.8718 120.097 50.3839 121.736 50.3839C122.145 50.3839 122.555 50.3327 122.965 50.2815L131.671 48.8475C133.259 48.5914 134.693 47.8232 135.769 46.7988C136.486 47.0037 137.254 47.1574 138.022 47.311C140.276 47.7207 142.58 47.9768 144.936 47.9768C145.756 47.9768 146.575 47.9256 147.394 47.8744C151.389 47.6183 154.923 46.6964 157.894 45.16C158.201 45.0063 158.508 44.8014 158.816 44.6478C160.096 45.7233 161.684 46.3891 163.425 46.4916L187.086 47.7719C187.24 47.7719 187.343 47.7719 187.496 47.7719C187.855 47.7719 188.213 47.7207 188.572 47.6695L195.691 49.206C198.764 49.8206 201.888 48.5402 203.629 45.9282L204.397 44.8014L207.163 45.3648L207.419 46.6964C207.982 49.7693 210.39 52.1765 213.462 52.8423L221.503 54.4812C221.759 54.6348 222.067 54.7372 222.323 54.8909L230.364 58.015C233.078 59.0906 236.1 58.476 238.148 56.6834L238.66 58.2711C239.377 60.4222 241.016 62.1635 243.167 63.0341L249.979 65.5949C250.594 65.851 251.208 65.9534 251.823 66.0559C252.13 66.3631 252.54 66.6704 252.898 66.9265L265.241 74.9673C269.082 77.4769 273.077 78.9622 277.123 79.5255C277.84 79.628 278.557 79.6792 279.326 79.6792C279.838 81.8814 280.76 84.0837 282.091 86.4908C283.576 89.2052 285.471 91.7148 287.674 94.0195C290.439 96.9388 293.41 99.0386 296.483 100.319C298.992 101.343 301.451 101.907 303.858 101.907C304.78 101.907 305.65 101.855 306.521 101.702C309.901 101.138 312.872 99.6532 315.33 97.2461C319.018 93.7122 320.042 89.9735 320.195 87.4127C320.195 87.1566 320.247 86.8493 320.247 86.5933L326.085 84.3398C329.67 82.9057 331.668 79.0646 330.797 75.3771Z" fill="#243555"/>
<path d="M28.7795 89.4102C26.6285 90.5881 24.6311 91.3051 22.8385 91.5612L20.4826 84.852C22.1215 84.5447 23.8116 83.9813 25.553 83.1107C27.2943 82.24 28.7795 81.2157 30.0599 79.9865C32.5183 77.6818 33.1841 75.8893 32.0061 74.6601C31.3915 73.9943 30.5721 73.8407 29.599 74.1992C28.6259 74.5577 27.1406 75.2747 25.2969 76.4014C23.2483 77.6306 21.4557 78.6037 19.9193 79.2695C18.3828 79.9353 16.7439 80.1914 15.0538 80.0377C13.3637 79.8841 11.776 79.0134 10.2908 77.4258C8.95915 76.0429 8.19092 74.4553 7.88363 72.6115C7.57633 70.7677 7.88363 68.8216 8.75429 66.7729C9.62495 64.7243 11.1614 62.6245 13.3637 60.5759C14.8489 59.1418 16.4878 57.9639 18.2291 56.8884C19.9705 55.864 21.7118 55.147 23.4531 54.7373L25.9627 61.3441C22.6849 62.2148 20.0729 63.5976 18.0243 65.5438C16.7439 66.7729 16.0269 67.7972 15.7708 68.7703C15.5659 69.6922 15.7196 70.4604 16.283 71.075C16.8463 71.6896 17.6146 71.792 18.5877 71.4335C19.5608 71.075 20.9948 70.358 22.7873 69.2313C24.8359 67.9509 26.6797 67.029 28.2162 66.3632C29.7526 65.6974 31.3403 65.4413 33.0816 65.595C34.7717 65.7486 36.3594 66.5681 37.8447 68.1558C39.1251 69.5386 39.8933 71.1263 40.2006 72.9188C40.5079 74.7113 40.2006 76.7087 39.2787 78.7574C38.408 80.8572 36.8716 82.9058 34.7205 84.9544C32.928 86.747 30.9306 88.2322 28.7795 89.4102Z" fill="white"/>
<path d="M61.1479 57.5542L49.8805 64.3658L50.9048 70.819L43.2225 75.4796L38.8691 41.6774L46.2954 37.1704L74.259 56.6835L66.4231 61.4465L61.1479 57.5542ZM55.5654 53.3545L46.9612 46.8501L48.7025 57.4517L55.5654 53.3545Z" fill="white"/>
<path d="M64.7842 27.2344L78.6636 22.2153C81.8901 21.0374 84.9631 20.6277 87.8824 20.9349C90.8016 21.2422 93.3624 22.2665 95.5135 23.9567C97.6645 25.6468 99.3034 28.0027 100.379 30.9732C101.454 33.9437 101.711 36.7605 101.147 39.4749C100.584 42.1894 99.2522 44.5965 97.2036 46.6963C95.1549 48.7962 92.543 50.435 89.3164 51.613L75.437 56.6321L64.7842 27.2344ZM86.5507 45.0574C89.0603 44.1355 90.8016 42.7015 91.8259 40.7553C92.8503 38.7579 92.9015 36.5557 91.9796 33.9949C91.0577 31.4853 89.5725 29.7952 87.5751 28.9246C85.5264 28.0539 83.273 28.0539 80.7634 28.9758L75.5394 30.8707L81.378 46.9524L86.5507 45.0574Z" fill="white"/>
<path d="M116.614 11.9211L125.32 10.4871L130.391 41.2676L121.684 42.7016L116.614 11.9211Z" fill="white"/>
<path d="M139.456 39.7824C137.049 39.3214 135.052 38.6044 133.515 37.6825L135.973 30.9733C137.407 31.7927 139.098 32.4585 140.993 32.8683C142.888 33.3292 144.68 33.4829 146.473 33.3292C149.853 33.1244 151.492 32.1513 151.389 30.4611C151.338 29.5905 150.826 28.9247 149.802 28.5662C148.829 28.2077 147.241 27.8492 145.09 27.5419C142.734 27.1834 140.737 26.7736 139.098 26.3127C137.51 25.8518 136.076 24.9811 134.847 23.8031C133.618 22.6252 132.952 20.9351 132.798 18.7328C132.696 16.8378 133.054 15.0965 134.027 13.5088C134.949 11.9212 136.434 10.5896 138.432 9.56524C140.429 8.54093 142.939 7.92635 145.909 7.72148C147.958 7.56784 150.007 7.67027 152.004 8.02878C154.001 8.33607 155.794 8.89944 157.382 9.71889L155.077 16.4281C152.004 15.0453 149.085 14.4307 146.268 14.5844C144.526 14.6868 143.246 15.0453 142.478 15.6087C141.71 16.172 141.351 16.8891 141.402 17.7085C141.454 18.5279 141.966 19.1425 142.939 19.501C143.912 19.8595 145.448 20.1668 147.599 20.4741C150.007 20.8326 152.004 21.2424 153.592 21.7033C155.179 22.1642 156.613 22.9837 157.842 24.2129C159.072 25.3908 159.737 27.0809 159.891 29.232C159.994 31.0757 159.584 32.8171 158.662 34.4047C157.74 35.9924 156.255 37.2728 154.257 38.3483C152.26 39.3726 149.75 39.9872 146.78 40.1921C144.322 40.3969 141.863 40.2433 139.456 39.7824Z" fill="white"/>
<path d="M165.422 7.72144L174.231 8.18237L172.951 32.3561L187.803 33.1243L187.445 40.0896L163.783 38.8092L165.422 7.72144Z" fill="white"/>
<path d="M213.77 38.8091L200.812 36.1971L197.227 41.626L188.418 39.8334L208.136 12.0234L216.638 13.7648L223.962 47.106L214.948 45.2623L213.77 38.8091ZM212.54 31.9463L210.594 21.3447L204.653 30.3074L212.54 31.9463Z" fill="white"/>
<path d="M264.115 29.3859L252.745 58.425L245.984 55.7618L239.173 35.2756L233.129 50.7427L225.088 47.6698L236.407 18.6306L243.167 21.2938L249.979 41.78L256.023 26.3129L264.115 29.3859Z" fill="white"/>
<path d="M274.102 34.3535L286.445 42.3943C289.313 44.2381 291.515 46.4404 293 48.9499C294.537 51.4595 295.254 54.1227 295.202 56.8371C295.151 59.6027 294.229 62.3172 292.539 64.9291C290.798 67.5924 288.698 69.4873 286.189 70.6653C283.679 71.8432 280.965 72.253 278.045 71.8432C275.126 71.4847 272.258 70.358 269.39 68.5142L257.098 60.4734L274.102 34.3535ZM272.975 62.4196C275.228 63.8536 277.431 64.417 279.633 64.0073C281.835 63.5975 283.628 62.3172 285.113 60.0637C286.547 57.8102 287.059 55.6079 286.496 53.4569C285.984 51.3058 284.601 49.5133 282.347 48.028L277.687 45.0063L268.366 59.3467L272.975 62.4196Z" fill="white"/>
<path d="M288.8 82.7519C287.622 80.6008 286.854 78.6546 286.598 76.8621L293.307 74.455C293.615 76.0939 294.178 77.784 295.049 79.5253C295.919 81.2666 296.944 82.7519 298.224 84.0323C300.58 86.4906 302.372 87.1052 303.55 85.9272C304.216 85.3127 304.319 84.4932 303.96 83.5201C303.602 82.547 302.833 81.113 301.707 79.218C300.426 77.1694 299.453 75.3769 298.787 73.8404C298.122 72.3039 297.866 70.665 297.968 68.9749C298.122 67.2848 298.941 65.6971 300.529 64.1607C301.912 62.8291 303.499 62.0096 305.343 61.7023C307.187 61.395 309.133 61.6511 311.182 62.5218C313.23 63.3924 315.33 64.9289 317.43 67.0799C318.864 68.5652 320.093 70.1529 321.117 71.9454C322.142 73.6867 322.91 75.4281 323.32 77.1182L316.713 79.679C315.791 76.4012 314.408 73.7892 312.462 71.7918C311.233 70.5114 310.157 69.7944 309.235 69.5895C308.314 69.3846 307.545 69.5383 306.931 70.1017C306.316 70.665 306.214 71.4333 306.572 72.4064C306.931 73.3795 307.699 74.7623 308.826 76.606C310.106 78.6546 311.079 80.4472 311.745 81.9837C312.411 83.5201 312.667 85.1078 312.564 86.7979C312.462 88.488 311.591 90.0757 310.055 91.6122C308.723 92.8925 307.136 93.712 305.292 94.0193C303.499 94.3266 301.502 94.0193 299.453 93.1486C297.353 92.278 295.305 90.7927 293.205 88.6417C291.464 86.8491 289.978 84.9029 288.8 82.7519Z" fill="white"/>
</svg>

<svg width="331" height="102" fill="none" xmlns="http://www.w3.org/2000/svg"><path d="M100.225 17.965c-3.329-2.612-7.221-4.2-11.626-4.61-4.046-.41-8.297.154-12.599 1.69l-13.828 4.968c-3.995 1.434-6.043 5.839-4.61 9.833l2.817 7.785-9.73-6.811a7.692 7.692 0 0 0-8.4-.256l-7.426 4.507a7.67 7.67 0 0 0-3.636 7.58l1.997 15.313h-.358l-2.254-5.839c-1.383-3.585-5.173-5.582-8.912-4.763-2.458.564-4.967 1.588-7.374 3.022a35.073 35.073 0 0 0-6.249 4.712c-2.92 2.765-5.07 5.736-6.402 8.758C.15 67.285-.31 70.665.201 73.943c.564 3.38 2.049 6.35 4.405 8.86 3.021 3.227 6.197 4.405 8.604 4.815l2.305 6.555c1.075 3.124 4.046 5.122 7.221 5.122.359 0 .768-.052 1.127-.103 2.714-.41 5.48-1.383 8.502-3.021a35.913 35.913 0 0 0 7.58-5.532c2.663-2.51 4.66-5.224 5.992-7.99.41-.153.768-.358 1.126-.563l7.683-4.66c2.663-1.64 4.097-4.712 3.585-7.785l-.205-1.332 2.407-1.485 1.076.82c2.51 1.894 5.89 2.048 8.604.41l6.453-3.893c.41-.051.82-.205 1.178-.307l13.88-5.02c4.301-1.536 7.938-3.84 10.755-6.76 3.072-3.124 5.07-6.863 5.941-11.011.87-4.098.512-8.4-1.025-12.702-1.383-4.302-3.841-7.836-7.17-10.396zm230.572 57.412c-.563-2.458-1.588-4.917-3.073-7.375a33.021 33.021 0 0 0-4.763-6.248c-2.817-2.92-5.736-5.02-8.809-6.3-3.431-1.434-6.812-1.895-10.089-1.331-.461.05-.871.153-1.281.256-.307-3.278-1.383-6.402-3.175-9.424-2.1-3.483-5.122-6.555-8.963-9.014l-12.343-8.04c-1.69-1.127-3.79-1.486-5.787-1.076l-1.076.307c-.102-.307-.205-.563-.307-.87-.819-1.844-2.356-3.33-4.251-4.047l-8.041-3.124a7.622 7.622 0 0 0-7.784 1.332l-.513-1.588c-.717-2.15-2.355-3.892-4.507-4.763l-6.811-2.612c-3.944-1.536-8.4.41-9.936 4.353l-2.766 7.12-2.407-10.807c-.666-2.97-2.97-5.275-5.992-5.89l-8.502-1.741a7.674 7.674 0 0 0-7.784 3.073l-12.753 17.976c-.307-.05-.564-.102-.871-.102l-7.17-.358.871-16.492A7.716 7.716 0 0 0 174.641.5l-8.809-.46a7.73 7.73 0 0 0-5.531 1.945l-.41.41c-1.997-.87-4.251-1.536-6.607-1.946-2.561-.41-5.224-.564-7.836-.359-4.046.256-7.58 1.178-10.499 2.664a20.465 20.465 0 0 0-3.892 2.56 6.19 6.19 0 0 0-1.229-1.075c-1.639-1.178-3.739-1.69-5.737-1.332l-8.706 1.434c-4.2.666-7.017 4.66-6.351 8.81l5.07 30.78c.308 1.997 1.434 3.79 3.125 5.019 1.331.922 2.868 1.434 4.507 1.434.409 0 .819-.051 1.229-.102l8.706-1.434a7.806 7.806 0 0 0 4.098-2.05c.717.206 1.485.36 2.253.513 2.254.41 4.558.666 6.914.666.82 0 1.639-.051 2.458-.103 3.995-.256 7.529-1.178 10.5-2.714.307-.154.614-.359.922-.512a7.845 7.845 0 0 0 4.609 1.844l23.661 1.28h.41c.359 0 .717-.051 1.076-.102l7.119 1.536a7.698 7.698 0 0 0 7.938-3.278l.768-1.127 2.766.564.256 1.331c.563 3.073 2.971 5.48 6.043 6.146l8.041 1.64c.256.153.564.255.82.409l8.041 3.124a7.622 7.622 0 0 0 7.784-1.332l.512 1.588c.717 2.151 2.356 3.892 4.507 4.763l6.812 2.56c.615.257 1.229.36 1.844.462.307.307.717.614 1.075.87l12.343 8.041c3.841 2.51 7.836 3.995 11.882 4.558.717.103 1.434.154 2.203.154.512 2.202 1.434 4.405 2.765 6.812 1.485 2.714 3.38 5.224 5.583 7.528 2.765 2.92 5.736 5.02 8.809 6.3 2.509 1.024 4.968 1.588 7.375 1.588.922 0 1.792-.052 2.663-.205 3.38-.564 6.351-2.049 8.809-4.456 3.688-3.534 4.712-7.272 4.865-9.833 0-.256.052-.564.052-.82l5.838-2.253c3.585-1.434 5.583-5.275 4.712-8.963z" fill="#243555"/><path d="M28.78 89.41c-2.152 1.178-4.149 1.895-5.942 2.151l-2.355-6.709c1.639-.307 3.329-.87 5.07-1.741 1.741-.871 3.226-1.895 4.507-3.124 2.458-2.305 3.124-4.098 1.946-5.327-.614-.666-1.434-.82-2.407-.46-.973.358-2.458 1.075-4.302 2.201-2.049 1.23-3.841 2.203-5.378 2.868a9.86 9.86 0 0 1-4.865.769c-1.69-.154-3.278-1.025-4.763-2.612-1.332-1.383-2.1-2.97-2.407-4.814-.308-1.844 0-3.79.87-5.84.871-2.048 2.407-4.148 4.61-6.196 1.485-1.434 3.124-2.612 4.865-3.688 1.742-1.024 3.483-1.741 5.224-2.15l2.51 6.606c-3.278.87-5.89 2.254-7.939 4.2-1.28 1.229-1.997 2.253-2.253 3.226-.205.922-.051 1.69.512 2.305.563.615 1.332.717 2.305.358.973-.358 2.407-1.075 4.2-2.202a41.028 41.028 0 0 1 5.428-2.868c1.537-.666 3.124-.922 4.866-.768 1.69.154 3.277.973 4.763 2.56A9.128 9.128 0 0 1 40.2 72.92c.307 1.792 0 3.79-.922 5.838-.871 2.1-2.407 4.149-4.559 6.197a26.138 26.138 0 0 1-5.94 4.456zM61.148 57.554L49.88 64.366l1.025 6.453-7.683 4.66-4.353-33.802 7.426-4.507L74.26 56.684l-7.836 4.763-5.275-3.893zm-5.583-4.2l-8.604-6.504 1.742 10.602 6.862-4.097zM64.784 27.234l13.88-5.019c3.226-1.178 6.3-1.587 9.218-1.28 2.92.307 5.48 1.332 7.631 3.022 2.151 1.69 3.79 4.046 4.866 7.016 1.075 2.97 1.332 5.788.768 8.502-.563 2.714-1.895 5.121-3.943 7.221-2.05 2.1-4.661 3.739-7.888 4.917l-13.879 5.02-10.653-29.399zm21.767 17.823c2.51-.922 4.25-2.355 5.275-4.302 1.024-1.997 1.076-4.2.154-6.76-.922-2.51-2.407-4.2-4.405-5.07-2.049-.871-4.302-.871-6.812.05l-5.224 1.896 5.839 16.081 5.173-1.895zM116.614 11.921l8.706-1.434 5.071 30.78-8.707 1.435-5.07-30.78zM139.456 39.782c-2.407-.46-4.404-1.178-5.941-2.1l2.458-6.709c1.434.82 3.125 1.486 5.02 1.895 1.895.461 3.687.615 5.48.461 3.38-.205 5.019-1.178 4.916-2.868-.051-.87-.563-1.536-1.587-1.895-.973-.358-2.561-.717-4.712-1.024-2.356-.359-4.353-.768-5.992-1.23-1.588-.46-3.022-1.33-4.251-2.509-1.229-1.178-1.895-2.868-2.049-5.07-.102-1.895.256-3.636 1.229-5.224.922-1.588 2.407-2.92 4.405-3.944 1.997-1.024 4.507-1.639 7.477-1.844a24.243 24.243 0 0 1 6.095.308c1.997.307 3.79.87 5.378 1.69l-2.305 6.71c-3.073-1.384-5.992-1.998-8.809-1.845-1.742.103-3.022.461-3.79 1.025-.768.563-1.127 1.28-1.076 2.1.052.819.564 1.433 1.537 1.792.973.358 2.509.666 4.66.973 2.408.359 4.405.768 5.993 1.23a9.782 9.782 0 0 1 4.25 2.509c1.23 1.178 1.895 2.868 2.049 5.019a9.117 9.117 0 0 1-1.229 5.173c-.922 1.587-2.407 2.868-4.405 3.943-1.997 1.025-4.507 1.64-7.477 1.844a26.996 26.996 0 0 1-7.324-.41zM165.422 7.721l8.809.461-1.28 24.174 14.852.768-.358 6.966-23.662-1.28 1.639-31.089zM213.77 38.81l-12.958-2.613-3.585 5.429-8.809-1.793 19.718-27.81 8.502 1.742 7.324 33.341-9.014-1.844-1.178-6.453zm-1.23-6.864l-1.946-10.601-5.941 8.962 7.887 1.64zM264.115 29.386l-11.37 29.039-6.761-2.663-6.811-20.486-6.044 15.467-8.041-3.073 11.319-29.04 6.76 2.664 6.812 20.486 6.044-15.467 8.092 3.073zM274.102 34.353l12.343 8.041c2.868 1.844 5.07 4.046 6.555 6.556 1.537 2.51 2.254 5.173 2.202 7.887-.051 2.766-.973 5.48-2.663 8.092-1.741 2.663-3.841 4.558-6.35 5.736-2.51 1.178-5.224 1.588-8.144 1.178-2.919-.358-5.787-1.485-8.655-3.329l-12.292-8.04 17.004-26.12zm-1.127 28.067c2.253 1.434 4.456 1.997 6.658 1.587 2.202-.41 3.995-1.69 5.48-3.943 1.434-2.254 1.946-4.456 1.383-6.607-.512-2.151-1.895-3.944-4.149-5.429l-4.66-3.022-9.321 14.34 4.609 3.074zM288.8 82.752c-1.178-2.151-1.946-4.097-2.202-5.89l6.709-2.407c.308 1.639.871 3.329 1.742 5.07.87 1.742 1.895 3.227 3.175 4.507 2.356 2.459 4.148 3.073 5.326 1.895.666-.614.769-1.434.41-2.407-.358-.973-1.127-2.407-2.253-4.302-1.281-2.049-2.254-3.841-2.92-5.378-.665-1.536-.921-3.175-.819-4.865.154-1.69.973-3.278 2.561-4.814 1.383-1.332 2.97-2.151 4.814-2.459 1.844-.307 3.79-.05 5.839.82 2.048.87 4.148 2.407 6.248 4.558 1.434 1.485 2.663 3.073 3.687 4.865 1.025 1.742 1.793 3.483 2.203 5.173l-6.607 2.561c-.922-3.278-2.305-5.89-4.251-7.887-1.229-1.28-2.305-1.998-3.227-2.203-.921-.204-1.69-.05-2.304.513-.615.563-.717 1.331-.359 2.304.359.973 1.127 2.356 2.254 4.2 1.28 2.049 2.253 3.841 2.919 5.378.666 1.536.922 3.124.819 4.814-.102 1.69-.973 3.278-2.509 4.814-1.332 1.28-2.919 2.1-4.763 2.407-1.793.308-3.79 0-5.839-.87-2.1-.871-4.148-2.356-6.248-4.507-1.741-1.793-3.227-3.74-4.405-5.89z" fill="#fff"/></svg>
